X: 1
T: Grandma Tilley's Palindrome
C: Ruth Perkins Tilley m.1-6
C: Leslie Lassetter m.7-16
R: reel
Z: 2012 John Chambers <jc:trillian.mit.edu>
S: handwritten MS from Jean Monroe 2012-5-31
M: C|
L: 1/8
K: G
[|\
"G"GABD "C"GAB2 | "G"GABD "C"GA"Em"B2 | "G"GABD "C"GAB2 | "G"GABD "C7"B2"D"A2 |
"G"GDG2 "C"GDG2 | "G"GDG2 "C"GDG2 | "C"GFED "Am"CBA2 | "Am7"GEDE "D"DBA2 |
"D"A2"G"BD "C"EDEG | "Am"A2BC "D"DEFG | "G"G2DG "C"G2DG | "G"G2DG "C"G2DG |
"D"A2"G"B2 "Bm"DBAG | "Bm"B2"D"AG "Em"DBAG | "Em"B2"D"AG "G"DBAG | "G"B2"D"AG "D7"DB"G"AG |]
